X: 153
%
U:~=!turn!
T: The Duchess of Gordon
C:Donald Dow
O:Scotland
B:Keith Norman MacDonald : "The Skye collection of the best reels & strathspeys extant" : 1887
Z:Ralph Palmer
R:Strathspey
M:C
L:1/8
K:D
d | A<DA>F A<DD>d | A<DA>F B<EE>d | A<DA>d B>dA>d | B>dA>g f<dd :|
f | d>AF>A D<Ad>B | A<DA>F E<ee<f | d>AF>A D>AF>A | d<BA>F A<dd>f |
d>AF>A D>Ad>B | A<DA>F E<ee>f | f<ae>f d>BA<F | B/c/d/B/ A<F A<dd |]


